assets/icons/qvision/flight_takeoff.svg

<svg width="24" height="24" viewBox="0 0 24 24" fill="none" xmlns="http://www.w3.org/2000/svg">
<g clip-path="url(#clip0_147_4219)">
<path d="M2.5 19H21.5V21H2.5V19ZM22.07 9.64001C21.86 8.84001 21.03 8.36001 20.23 8.58001L14.92 10L8.02 3.57001L6.09 4.08001L10.23 11.25L5.26 12.58L3.29 11.04L1.84 11.43L4.43 15.92C4.43 15.92 11.55 14.02 21 11.49C21.81 11.26 22.28 10.44 22.07 9.64001Z" fill="#323232"/>
</g>
<defs>
<clipPath id="clip0_147_4219">
<rect width="24" height="24" fill="white"/>
</clipPath>
</defs>
</svg>

<svg xmlns="http://www.w3.org/2000/svg" enable-background="new 0 0 24 24" height="24" viewBox="0 0 24 24" width="24"><g><rect fill="none" height="24" width="24"/></g><g><g><g><path d="M2.5,19h19v2h-19V19z M22.07,9.64c-0.21-0.8-1.04-1.28-1.84-1.06L14.92,10l-6.9-6.43L6.09,4.08l4.14,7.17l-4.97,1.33 l-1.97-1.54l-1.45,0.39l2.59,4.49c0,0,7.12-1.9,16.57-4.43C21.81,11.26,22.28,10.44,22.07,9.64z"/></g></g></g></svg>
